!!!OTL: ACH SCHIFFMANN DU FEIN GUTER MANN
!!!ARE: Europa, Mitteleuropa, Deutschland, Halle
!!!SCT: E0078A
!!!YEM: Copyright 1995, estate of Helmut Schaffrath.
**kern
*ICvox
*Ivox
!! Mixed meters:  2/4; 3/4
*M2/4
*k[b-]
*F:
{8a
=1
8cc
8a
8a
8a
=2
8a
8g
8g}
{8g
=3
8f
8a
8cc
8dd
=4
8dd
8cc
8cc
8a
=5
8cc
8a
8a}
{8a
=6
8cc
8a
8a
8a
=7
8a
8g
8g}
{8g
=8
8f
8a
8cc
8dd
=9
8dd
8cc
8cc}
{8a
=10
8cc
8a
8a
8a
=11
8a
8g
8g}
{8b-
=12
8a
8f
8g
8a
=13
4f
8r}
{8a
=14
8cc
8a
8a
8a
=15
8a
8g
8g}
{8g
=16
8f
8a
8cc
8dd
=17
8dd
8cc
8cc
8a
=18
8cc
8a
8a}
{8a
=19
8cc
8a
8a
8a
=20
8a
8g
8g}
{8g
=21
8f
8a
8cc
8dd
=22
8dd
8cc
8cc}
{8a
=23
8cc
8a
8a
8a
=24
8a
8g
8g}
{8b-
=25
8a
8f
8g
8a
=26
4f
8r}
{8a
=27
8cc
8a
8a
8a
=28
8a
8g
8g}
{8g
=29
8f
8a
8cc
8dd
=30
8dd
8cc
8cc
8a
=31
*M3/4
8cc
8a
8a}
{8f
8f
8f
=32
4b-
8dd
8dd
8dd
8dd
=33
8dd
8cc
8a}
{8ff
8cc
8cc
=34
8a
8a
8a
8a
8a
8g
=35
4g
4f
8r}
==
!!!AGN: erzaehlendes Volks - Lied, Sage, Liebe, Ballade ?
!!!ONB: ESAC (Essen Associative Code) Database: ERK1
!!!AMT: irregular
!!!AIN: vox
!!!EED: Helmut Schaffrath
!!!EEV: 1.0
*-
